dist/intermediate-svg/excel.svg

<?xml version="1.0" encoding="utf-8"?><svg xmlns="http://www.w3.org/2000/svg" viewBox="0 0 17.78 20" width="17.78" height="20"><path d="M3.73 10.07l1.95-2.45 2 2.45h1.47L6.44 6.66 9 3.44H7.48l-1.8 2.27-1.8-2.27H2.36l2.56 3.22-2.71 3.41zM2.2 17.67H6V16.2H2.2zM2.21 15.26H6v-1.47H2.21zM7 17.67h3.8V16.2H7zM7 15.26h3.8v-1.47H7zM15.57 16.2h-3.83v1.47h3.83zM15.57 13.79h-3.83v1.47h3.83z"/><path d="M0 0v20h17.78V5.41L12.72 0zm1.1 1.12h10.52v5.39h5V18.9H1.1z"/></svg>

<?xml version="1.0" encoding="utf-8"?><svg xmlns="http://www.w3.org/2000/svg" viewBox="0 0 17.78 20" width="17.78" height="20"><path d="M3.73 10.07L5.68 7.62l2 2.45H9.15L6.44 6.66 9 3.44H7.48L5.68 5.71 3.88 3.44H2.36L4.92 6.66 2.21 10.07zM2.2 17.67H6V16.2H2.2zM2.21 15.26H6V13.79H2.21zM7 17.67H10.8V16.2H7zM7 15.26H10.8V13.79H7zM15.57 16.2H11.74v1.47h3.83zM15.57 13.79H11.74v1.47h3.83z"/><path d="M0,0V20H17.78V5.41h0L12.72,0ZM1.1,1.12H11.62V6.51h5V18.9H1.1Z"/></svg>
